X: 28
T:Roddy McCorley
O:Trad
M:2/4
L:1/8
K:D
| f2 ef | A2 de | f3 e | d3 A | B2 d2 | d2 e2 | d4- | d2  |
|:fg|a2 a2 | a2 fa | b2 b2 | a2 fe | d2 B2 | g3 f | e4- | e2  :|
de|f2 ef | A2 de | f3 e | d3 A | B2 d2 | d2 e2 | d4- | d4 |]
